apps/www/public/images/logos/publicity/gopuff.svg

<svg width="95" height="60" viewBox="0 0 95 60" fill="none" xmlns="http://www.w3.org/2000/svg">
<g clip-path="url(#clip0_2080_14298)">
<path d="M61.8805 23.9426V30.964C61.8805 32.7812 61.285 33.8625 59.8864 33.8625C58.4947 33.8625 57.8924 32.7812 57.8924 30.964V23.9426H53.9244V31.231C53.9244 35.0479 56.3065 36.6242 59.8797 36.6242C62.8307 36.6242 65.8351 35.0479 65.8351 31.231V23.9426C65.8417 23.9426 61.8805 23.9426 61.8805 23.9426ZM31.6756 23.6625C27.5805 23.6625 24.8637 26.2353 24.8637 30.2345C24.8637 34.2468 27.741 36.6242 31.4414 36.6242C34.8539 36.6242 38.1662 34.5529 38.1662 30.0196C38.1662 26.2809 35.5766 23.6625 31.6756 23.6625ZM31.5552 33.882C29.8622 33.882 28.9521 32.2798 28.9521 30.1499C28.9521 28.3066 29.6748 26.4177 31.5685 26.4177C33.3618 26.4177 34.0845 28.3066 34.0845 30.1368C34.0911 32.3774 33.1075 33.882 31.5552 33.882ZM22.04 23.0698C20.7084 23.9556 20.3604 25.3104 20.3604 25.3104C19.6378 24.4246 18.1456 23.7212 16.3991 23.7212C13.4817 23.7212 10.4304 26.2549 10.4304 30.2541C10.4304 33.8038 13.0066 36.533 16.3991 36.533C17.8043 36.533 18.7545 36.1943 19.5106 35.4647V35.7318C19.5106 37.9855 18.0787 38.995 16.1984 38.995C14.3583 38.995 13.0601 38.4024 12.2505 37.953L11.4676 40.8839C12.5248 41.418 14.6192 41.9391 16.2988 41.9391C18.179 41.9391 20.0727 41.5873 21.4578 40.4214C22.9032 39.1839 23.3984 37.2234 23.3984 34.846V29.3552C23.4251 27.4533 24.121 26.1181 24.9774 25.1736C24.9774 25.1671 22.04 23.0698 22.04 23.0698ZM17.1285 33.9211C15.4356 33.9211 14.5255 32.3189 14.5255 30.1889C14.5255 28.3457 15.2482 26.4568 17.1419 26.4568C18.9218 26.4698 19.6444 28.3457 19.6444 30.1759C19.6444 32.4165 18.6742 33.9211 17.1285 33.9211ZM46.0486 23.6625C41.7996 23.6625 39.4844 26.4047 39.4844 30.4625V41.6655H43.4457V35.53C44.155 36.2464 45.2858 36.6437 46.798 36.6437C49.6352 36.6437 52.5995 34.5203 52.5995 30.0001C52.5995 26.0269 49.9095 23.6625 46.0486 23.6625ZM46.0352 33.882C44.3424 33.882 43.4323 32.2798 43.4323 30.1499C43.4323 28.3066 44.155 26.4177 46.0486 26.4177C47.8419 26.4177 48.5646 28.3066 48.5646 30.1368C48.5446 32.3774 47.5809 33.882 46.0352 33.882ZM84.417 21.2982V18.3411C83.8684 18.1848 83.1858 18.0741 82.3227 18.0741C81.165 18.0741 79.7933 18.3997 78.7963 19.3116C77.6654 20.3407 77.1903 21.9886 77.1903 23.4606V23.9231H73.0953V23.2978C73.035 20.3016 76.0461 21.1744 76.394 21.2852V18.3281C75.8386 18.1718 75.1562 18.061 74.2929 18.061C73.1354 18.061 71.7636 18.3867 70.7666 19.2986C69.6358 20.3277 69.1607 21.9691 69.1607 23.4476V23.9101H67.4677V26.7564H69.1607V36.3441C69.1607 38.9754 67.2804 38.5977 66.444 38.4675L66.0225 41.3139C66.424 41.4701 67.0663 41.6264 67.7153 41.6264C69.5086 41.6395 70.7801 41.1054 71.6364 40.2913C72.7071 39.2621 73.1153 37.7836 73.1153 36.3181L73.142 26.7629H77.2038V36.3506C77.264 39.1252 75.0357 38.5586 74.4871 38.474L74.0655 41.3203C74.467 41.4766 75.1093 41.6329 75.7584 41.6329C77.5517 41.646 78.8231 41.1119 79.6795 40.2977C80.7501 39.2686 81.1516 37.7901 81.1516 36.3246L81.1784 26.7694H84.4304V23.9426H81.1315V23.3108C81.1718 20.2821 84.0691 21.2005 84.417 21.2982Z" fill="#7E7E7E"/>
</g>
<defs>
<clipPath id="clip0_2080_14298">
<rect width="74" height="23.878" fill="white" transform="translate(10.4304 18.061)"/>
</clipPath>
</defs>
</svg>

<svg xmlns="http://www.w3.org/2000/svg" width="95" height="60" fill="none" viewBox="0 0 95 60"><g clip-path="url(#a)"><path fill="#7e7e7e" d="M61.88 23.943v7.021c0 1.817-.595 2.898-1.994 2.898-1.391 0-1.994-1.08-1.994-2.898v-7.021h-3.968v7.288c0 3.817 2.383 5.393 5.956 5.393 2.95 0 5.955-1.576 5.955-5.393v-7.288zm-30.204-.28c-4.095 0-6.812 2.572-6.812 6.572 0 4.012 2.877 6.39 6.577 6.39 3.413 0 6.725-2.072 6.725-6.605 0-3.74-2.59-6.357-6.49-6.357m-.12 10.219c-1.694 0-2.604-1.602-2.604-3.732 0-1.843.723-3.732 2.616-3.732 1.794 0 2.516 1.889 2.516 3.719.007 2.24-.977 3.745-2.529 3.745M22.04 23.07c-1.332.886-1.68 2.24-1.68 2.24-.722-.885-2.214-1.589-3.96-1.589-2.918 0-5.97 2.534-5.97 6.533 0 3.55 2.577 6.279 5.97 6.279 1.404 0 2.355-.339 3.11-1.068v.267c0 2.254-1.431 3.263-3.312 3.263-1.84 0-3.138-.593-3.947-1.042l-.783 2.93c1.057.535 3.151 1.056 4.83 1.056 1.881 0 3.775-.352 5.16-1.518 1.445-1.237 1.94-3.198 1.94-5.575v-5.49c.027-1.903.723-3.238 1.58-4.182 0-.007-2.938-2.104-2.938-2.104M17.129 33.92c-1.693 0-2.604-1.602-2.604-3.732 0-1.843.723-3.732 2.617-3.732 1.78.013 2.502 1.889 2.502 3.719 0 2.24-.97 3.745-2.515 3.745m28.92-10.258c-4.25 0-6.565 2.742-6.565 6.8v11.203h3.962V35.53c.709.716 1.84 1.114 3.352 1.114 2.837 0 5.801-2.124 5.801-6.644 0-3.973-2.69-6.337-6.55-6.337m-.014 10.219c-1.693 0-2.603-1.602-2.603-3.732 0-1.843.723-3.732 2.617-3.732 1.793 0 2.516 1.889 2.516 3.719-.02 2.24-.984 3.745-2.53 3.745m38.382-12.584v-2.957c-.549-.156-1.231-.267-2.094-.267-1.158 0-2.53.326-3.527 1.238-1.13 1.029-1.606 2.677-1.606 4.149v.462h-4.095v-.625c-.06-2.996 2.951-2.124 3.299-2.013v-2.957c-.555-.156-1.238-.267-2.101-.267-1.158 0-2.53.326-3.526 1.238-1.131 1.029-1.606 2.67-1.606 4.149v.462h-1.693v2.846h1.693v9.588c0 2.631-1.88 2.254-2.717 2.124l-.422 2.846a5 5 0 0 0 1.693.312c1.794.014 3.065-.52 3.921-1.335 1.071-1.029 1.48-2.507 1.48-3.973l.026-9.555h4.062v9.588c.06 2.774-2.168 2.208-2.717 2.123l-.421 2.846a5 5 0 0 0 1.692.313c1.794.013 3.065-.521 3.922-1.335 1.07-1.03 1.472-2.508 1.472-3.973l.026-9.556h3.252v-2.826h-3.299v-.632c.04-3.029 2.938-2.11 3.286-2.013"/></g><defs><clipPath id="a"><path fill="#fff" d="M10.43 18.061h74v23.878h-74z"/></clipPath></defs></svg>
